X:30
T: Dierdre Shannon's
T: Paddy Shannon's
R: reel
S: Trian
C: Paddy Shannon
M: 4/4
L: 1/8
K: G
B |: dgge dGBG| ~F2DE FGAB | dgge dGBG| DC ~C2 DGGB |
| dgge dGBG | ~F2DE FGAB | ~c2cd fdef | defd g3e :|
| dGFG AGFG | ABcA d3e | =fedc  AGFG |AG=FD DCC2 |
| DE=FE DG G2 | AGFG ABcA | ~d3e =fedc | AGGF G3 |
| DGGG AGFG | ABcA d3e | =fedc  AGFG |AG=FD DCC2 |
| DE=FE DG G2 | AGFG ABcA | d3e =fedc | AGGF G3 ||
